!!!!SEGMENT: pl-wn--mus-iii-105-719-1--007_zelenski-wladyslaw--25-preludyi-op-38-7-fughetta-allegretto.krn
!!!cenid: 18xx:3740
!!!COM: Żeleński, Władysław
!!!COM-rismID: pe41024455
!!!CDT: 1837/07/06-1921/01/23
!!!CNT: Polish
!!!GTL: 25 preludyi op. 38
!!!OTL: 7. Fughetta. Allegretto
!!!OMV: 007
!!!PDT: 1881
!!!AGN:
!!!SMS-siglum: PL-Wn
!!!SMS-shelfmark: Mus.III.105.719/1
!!!SMS-shelfwork: 001-007 G
!!!SMS-variant:
!!!SMS-altvar:
!!!NIFC-rismSourceID:
!!!NIFC-rismChildID:
!!!NIFC-islandoraID: none
!!!URL-pdf-islandora:
!!!URL-scan: https://polona.pl/item/25-preludyi-2-3-i-4-glosowych-na-organ-lub-fisharmonike-do-uzytku-organistow-i,ODE1NjEwMzc/2 @EN{Scan on Polona} @PL{Skany w portalu Polona}
!!!IIIF: https://polona.pl/iiif/item/ODE1NjEwMzc/manifest.json
!!!ONB-nifc:
!!!AIN: 2 organ
!!!key: B-
**kern	**fing	**dynam	**kern	**fing	**dynam
*part2	*part2	*part2	*part1	*part1	*part1
*staff2	*	*	*staff1	*	*
*I"Organ	*	*	*I"Organ	*	*
*I'org	*	*	*I'org	*	*
*ICklav	*	*	*ICklav	*	*
*Iorgan	*	*	*Iorgan	*	*
*clefF4	*	*	*clefG2	*	*
*k[b-e-]	*	*	*k[b-e-]	*	*
*B-:	*	*	*B-:	*	*
*M2/4	*	*	*M2/4	*	*
=1	=1	=1	=1	=1	=1
*xywh-#14:743,415,5034,971	*	*	*xywh-#14:743,415,5034,971	*	*
!	!	!	!LO:TX:a:B:t=7. Fughetta. Allegretto.	!	!
2r	.	.	8r	.	.
.	.	.	(>8f'/L	2	mf
.	.	.	8f'/	1	.
.	.	.	8b-/J	3	.
=2	=2	=2	=2	=2	=2
2r	.	.	8bn/L	4	.
.	.	.	8cc/	.	.
.	.	.	8f/	.	.
.	.	.	16b-X/L	2	.
.	.	.	16cc/JJ)	.	.
=3	=3	=3	=3	=3	=3
2r	.	.	8dd\L	.	.
.	.	.	8b-'\	2	.
.	.	.	(8b-\	1	.
.	.	.	16dd\L	2	.
.	.	.	16ee-\JJ	.	.
=4	=4	=4	=4	=4	=4
2r	.	.	8ff\L	.	.
.	.	.	16gg\L	.	.
.	.	.	16ee-\JJ	.	.
.	.	.	8dd\L	1	.
.	.	.	16ee-\L	4	.
.	.	.	16cc\JJ	.	.
=5	=5	=5	=5	=5	=5
8r	.	.	4.b-\)	.	.
8BB-'\L	4	.	.	.	.
(8BB-\	5	.	.	.	.
8F\J	1	.	(16cc\LL	1	.
.	.	.	16dd\JJ	.	.
=6	=6	=6	=6	=6	=6
8F#X\L	2	.	4ee-\	.	<
8G\	.	.	.	.	.
8C\)	.	.	8een\L	4	.
(16Fn\L	3	.	16dd\L	2	.
16G\JJ	.	.	16ee\JJ	3	[
=7	=7	=7	=7	=7	=7
!	!	!LO:HP:a	!	!	!
8A\L)	.	<	4.ff\	4	.
8F'\J	4	.	.	.	.
8F\L	5	.	.	.	.
(16A\L	.	.	16een\LL	.	.
16B-\JJ	.	.	16dd\JJ	.	.
=8	=8	=8	=8	=8	=8
8c\L	.	.	8cc/L)	.	.
16d\L	2	.	(16b-/L	4	.
16c\JJ	4	.	16g/JJ	.	.
8A\L	5	.	8cc/L	.	.
16B-\L	2	.	8en/J	.	.
16G\JJ	4	.	.	.	.
=9	=9	=9	=9	=9	=9
8F\L)	.	.	8f/L)	.	p
([<8F#X\J	.	.	(16cc/L	5	.
.	.	.	16e-X/JJ	2	.
16F#\LL]	.	.	8d/L)	.	.
16A\	.	.	.	.	.
16G\	.	.	(8c/J	3	.
16F#\JJ	.	.	.	.	.
!!LO:LB:g=original	!	!	!	!	!
=10	=10	=10	=10	=10	=10
*xywh-#14:737,1286,5060,794	*	*	*xywh-#14:737,1286,5060,794	*	*
8G\L)	.	.	8B-/L)	2	.
([8G#X\J	2	.	(16dd/L	5	.
.	.	.	16f/JJ	1	.
16G#\LL]	.	.	8en/L)	3	.
16Bn\	1	.	.	.	.
16A\	2	.	(8d/J	2	.
16G#\JJ	3	.	.	.	.
=11	=11	=11	=11	=11	=11
8A\L)	1	.	8c/L)	1	.
(8c#X\J	2	.	(16ff/L	5	.
.	.	.	16a/JJ	1	<
8d\L)	1	.	8b-/L	2	.
([8G\J	4	.	16dd/L	5	.
.	.	.	16f/JJ	1	.
=12	=12	=12	=12	=12	=12
16G\LL]	.	.	8en/)	2	.
16B-\	.	.	.	.	.
16A\	.	.	(4cc\	5	.
16G\JJ	.	.	.	.	.
8A\L	.	.	.	.	.
16G\L	.	.	8e-X/	2	[[
16F\JJ	.	.	.	.	.
=13	=13	=13	=13	=13	=13
4B-\)	.	.	8d/L)	.	.
.	.	.	8f'/	.	f
16r	.	.	(8f/	.	.
(16d\LL	1	.	.	.	.
16c\	2	.	8b-/J	.	.
16B-\JJ	3	.	.	.	.
=14	=14	=14	=14	=14	=14
16A\LL	4	.	8bn/L	.	.
16B-\	2	.	.	.	.
16A\	3	.	8cc/	.	.
16G\JJ	4	.	.	.	.
8F\)	5	.	8f/	.	.
8r	.	.	16b-X/L	.	.
.	.	.	16cc/JJ	.	.
=15	=15	=15	=15	=15	=15
16r	.	.	8dd\L)	.	.
(16B-\LL	4	.	.	.	.
16d\	2	.	8b-'\	.	.
16c\JJ	3	.	.	.	.
8B-\L)	4	.	(8b-\	.	<
(16g\L	1	.	16dd\L	.	.
16e-\JJ	2	.	16ee-\JJ	.	.
=16	=16	=16	=16	=16	=16
16d\LL	.	.	8ff\L	.	.
16f\	.	.	.	.	.
16e-\	.	.	16gg\L	.	.
16c\JJ	.	.	16ee-\JJ	.	.
16B-\LL	5	.	8dd\L	1	.
16d\	1	.	.	.	.
16c\	2	.	16ee-\L	4	[
16A\JJ	4	.	16cc\JJ	2	.
=17	=17	=17	=17	=17	=17
8B-\L	3	.	8dd\L)	3	.
16e-\L	1	.	(8g\J	1	>
16G\JJ	5	.	.	.	.
8A\L)	4	.	8cc\L	.	.
[8d^\J	1	.	16b-\L	.	.
.	.	.	16a\JJ	.	]]
=18	=18	=18	=18	=18	=18
8d\L]	.	.	16b-\LL	.	.
.	.	.	16cc\JJ	.	p
8D'\	4	.	4dd\	.	.
((8D\	5	.	.	.	.
8G\J	1	.	16cc#X\LL	.	.
.	.	.	16a\JJ	.	.
!!LO:LB:g=original	!	!	!	!	!
=19	=19	=19	=19	=19	=19
*xywh-#14:724,1936,5167,776	*	*	*xywh-#14:724,1936,5167,776	*	*
8G#X\L	.	.	4.ccn\	.	.
8A\	.	.	.	.	.
8D\)	.	.	.	.	.
16Gn\L	2	.	16b-/LL	.	<
16A\JJ	1	.	16a/JJ	.	.
=20	=20	=20	=20	=20	=20
8B-\L	2	.	8g\L)	.	.
8G\)	4	.	(8b-\	2	.
(8G\	5	.	8ee-\	5	.
16B-\L	3	.	8g\J	1	.
16c\JJ	2	.	.	.	.
=21	=21	=21	=21	=21	=21
8d\L	1	.	8f#X/L	2	.
16e-\L	3	.	8a/	3	.
16c\JJ	2	.	.	.	.
8B-\L	4	.	8dd/	.	.
16c\L	2	.	8f#/J	.	[
16A\JJ	4	.	.	.	.
=22	=22	=22	=22	=22	=22
8G\)	5	.	8g\L)	.	.
16r	.	.	8b-'\	.	f
(16B-\	2	.	.	.	.
16A-X\LL	3	.	(8b-\	.	.
16G\	1	.	.	.	.
16F\	.	.	8ee-\J	.	.
16E-\JJ	.	.	.	.	.
=23	=23	=23	=23	=23	=23
8D\)	.	.	8een\L	.	.
16r	.	.	8ff\	.	.
(16c\	1	.	.	.	.
16B-\LL	2	.	8b-\	.	.
16A-X\	3	.	.	.	.
16G\	1	.	16ee-X\L	.	.
16F\JJ	2	.	16ff\JJ	.	.
=24	=24	=24	=24	=24	=24
8E-\)	3	.	8gg\L)	.	.
*clefG2	*	*	*	*	*
16r	.	.	8ee-'\	.	.
(16b-\	2	.	.	.	.
16a-X/LL	.	.	(8ee-\	.	.
16g/	1	.	.	.	.
16f/	.	.	16gg\L	.	.
16e-/JJ	.	.	16aa-X\JJ	.	.
=25	=25	=25	=25	=25	=25
8d/L)	.	.	8bb-\L	.	.
(16e-/L	2	.	16ccc\L	.	.
16c/JJ	3	.	16aa-X\JJ	.	.
*clefF4	*	*	*	*	*
8B-\L	4	.	8gg\L	.	.
16c\L	2	.	16aa-\L	.	.
16A-X\JJ	4	.	16ff\JJ	.	.
=26	=26	=26	=26	=26	=26
8G\)	5	.	8.een\L	3	p
(4d-X^\	2	.	.	.	.
.	.	.	16ff\Jk	.	.
.	.	.	16gg\LL	.	.
.	.	.	16g\	.	.
16c\LL	3	.	16an\	.	.
16B-\JJ	4	.	16b-\JJ	.	.
!!LO:LB:g=original	!	!	!	!	!
=27	=27	=27	=27	=27	=27
*xywh-#14:718,2630,5274,681	*	*	*xywh-#14:718,2630,5274,681	*	*
8An\)	5	.	8.cc\L	.	.
(4e-\	2	.	.	.	.
.	.	.	16b-\Jk	.	.
.	.	.	16a/LL	.	.
.	.	.	16g/	1	.
16d\LL	3	.	16f#X/	2	.
16c\JJ	4	.	16a/JJ	3	.
=28	=28	=28	=28	=28	=28
16Bn\LL	5	.	8dd/L)	.	.
16d\	1	.	.	.	.
16c\	2	.	(8fn/J	2	<
16B\JJ	3	.	.	.	.
16c\LL	1	.	16en/LL	.	.
16B-X\	.	.	16g/	.	.
16A\	.	.	16a/	.	.
16G\JJ	.	.	16b-/JJ	.	.
=29	=29	=29	=29	=29	=29
16A\LL	3	.	8cc/L)	.	.
16c\	.	.	.	.	.
16B-\	.	.	(8e-X/J	2	.
16A\JJ	.	.	.	.	.
16B-\LL	.	.	16d/LL	.	.
16A\	1	.	16f#X/	.	.
16G\	.	.	16g/	.	.
16F#X\JJ	.	.	16a/JJ	.	.
=30	=30	=30	=30	=30	=30
16G\LL	.	.	8b-/L)	.	.
16A\	.	.	.	.	.
16G\	.	.	(8d/J	2	.
16Fn\JJ	.	.	.	.	.
16En/LL	1	.	8c/L	.	.
16D/	.	.	.	.	.
16C/	.	.	16d/L	.	.
16BB-/JJ	.	.	16en/JJ)	.	[
=31	=31	=31	=31	=31	=31
8AA/L)	5	.	([4f/	.	f
8F'/J	2	.	.	.	.
(8F\L	5	.	16f/LL]	.	.
.	.	.	16e-/	.	.
8B-\J	3	.	16d/	.	.
.	.	.	16f/JJ	.	.
=32	=32	=32	=32	=32	=32
8Bn\L	2	.	8.g/L	.	.
8c\J	1	.	.	.	.
.	.	.	16f/Jk	.	.
8F\L	.	.	16e-/LL	.	.
.	.	.	16c/	.	.
16B-X\L	3	.	16d/	.	.
16c\JJ	.	.	16e-/JJ	.	.
=33	=33	=33	=33	=33	=33
8d\L)	.	.	8.f/L)	4	.
8B-'\J	4	.	.	.	.
.	.	.	(16f#X/Jk	3	.
(8B-\L	5	.	16g/LL	1	.
.	.	.	16a/	.	.
16d\L	3	.	16b-/	.	.
16e-\JJ	2	.	16cc/JJ	.	.
=34	=34	=34	=34	=34	=34
8f\L	1	.	8dd\L)	.	.
16g\L	2	.	(16ee-\L	4	.
16e-\JJ	4	.	16cc\JJ	2	.
8d\L	5	.	8ff\L	5	.
16e-\L	2	.	(8a\J	1	.
16c\JJ)	3	.	.	.	.
!!LO:LB:g=original	!	!	!	!	!
=35	=35	=35	=35	=35	=35
*xywh-#14:706,3254,5110,845	*	*	*xywh-#14:706,3254,5110,845	*	*
(8.B-\L	4	.	8dd/L))	5	.
.	.	.	8f'/	2	p
16A\Jk	1	.	.	.	.
16G\LL	.	.	(8f/	.	.
16F\	.	.	.	.	.
16E-\	.	.	8b-/J	.	.
16D\JJ	.	.	.	.	.
=36	=36	=36	=36	=36	=36
8.E-\L	.	.	8bn/L	.	.
.	.	.	8cc/	.	.
16D\Jk	.	.	.	.	.
16E-\LL	.	.	8f/	.	<
16F\	.	.	.	.	.
16G\	.	.	16b-X/L	.	.
16A\JJ	.	.	16cc/JJ	.	.
=37	=37	=37	=37	=37	=37
8.B-\L	3	.	8dd\L)	.	.
.	.	.	8b-'\	.	.
16c\Jk	.	.	.	.	.
16d\LL	.	.	(8b-\	.	.
16e-\	3	.	.	.	.
16f\	.	.	16dd\L	.	.
16g\JJ	.	.	16ee-\JJ	.	.
=38	=38	=38	=38	=38	=38
8a-X\L)	2	.	8ee-\L	.	.
([8Bn\J	5	.	16gg\L	.	.
.	.	.	16ee-\JJ	.	.
16B\LL]	.	.	8dd\L	.	.
16d\	.	.	.	.	.
16c\	.	.	16ee-\L	.	.
16e-\JJ	.	.	16cc\JJ	.	.
=39	=39	=39	=39	=39	=39
16d\LL	1	.	8b-/L)	3	f
16c\	.	.	.	.	.
16B-\	.	.	(16dd/L	.	.
16A\JJ	4	.	16f#X/JJ	2	.
16B-\LL	3	.	8g/L)	3	.
16A\	1	.	.	.	.
16G\	.	.	(16b-/L	5	.
16F#X\JJ	.	.	16d/JJ	1	.
=40	=40	=40	=40	=40	=40
16G\LL	1	.	8e-/L)	.	.
16Fn\	.	.	.	.	.
16E-\	.	.	(>[8g/J	5	.
16D\JJ	4	.	.	.	.
16E-/LL	3	.	16g/LL]	.	.
16D/	1	.	16Bn/	.	.
16C/	.	.	16c/	.	.
16BBn/JJ	.	.	16d/JJ	.	.
=41	=41	=41	=41	=41	=41
16C/LL	2	.	4e-/	.	.
16FF/	5	.	.	.	.
16GG/	.	.	.	.	.
16AA/JJ	.	.	.	.	.
8BB-\L)	2	.	8d/L)	3	.
([8B-\J	2	.	(8g/J	5	.
=42	=42	=42	=42	=42	=42
8B-\L]	.	.	8c/L	1	.
!	!	!	!LO:TX:b:i:t=riten.	!	!
16A\L	1	.	[8f/J	5	.
16G\JJ	2	.	.	.	.
8F/L)	3	.	16f/LL]	.	.
.	.	.	16e-/	3	.
(8FF/J	5	.	16d/	2	.
.	.	.	16c/JJ	1	.
=43	=43	=43	=43	=43	=43
2BB-/)	2	.	2B-/)	2	.
==	==	==	==	==	==
*-	*-	*-	*-	*-	*-
!!!system-decoration: {(s1,s2)}
!!!RDF**kern: > = above
!!!RDF**kern: < = below
!!!ENC: Anastazja Marusiak
!!!END: 2022-03-11
!!!ENC: Natalia Wrzos
!!!END: 2022-03-15
!!!ENC-iiif: Jan Barakat
!!!END-iiif: 2022-08-31
!!!YEC: Copyright 2022 Narodowy Instytut Fryderyka Chopina (https://polishscores.org)
!!!YEM: License CC-BY-4.0 (https://creativecommons.org/licenses/by/4.0)
